icons/icn_zoom_recuad.svg

<svg width="24" xmlns="http://www.w3.org/2000/svg" height="24" id="screenshot-6aeeeffc-7e40-80be-8006-986872574281" viewBox="0 0 24 24" xmlns:xlink="http://www.w3.org/1999/xlink" fill="none" version="1.1"><g id="shape-6aeeeffc-7e40-80be-8006-986872574281"><g class="frame-container-wrapper"><g class="frame-container-blur"><g class="frame-container-shadows"><g fill="none"><g class="fills" id="fills-6aeeeffc-7e40-80be-8006-986872574281"><rect rx="0" ry="0" x="0" y="0" width="24" height="24.000000000000455" transform="matrix(1, 0, 0, 1, 0, 0)" class="frame-background"/></g><g class="frame-children"><g id="shape-6aeeeffc-7e40-80be-8006-98649339344f" rx="0" ry="0"><g id="shape-563718e9-8906-8058-8006-98644be14c43" style="opacity: 1;"><g class="fills" id="fills-563718e9-8906-8058-8006-98644be14c43"><path d="M5.182177543640137,1.9998779296875C3.430712938308716,1.9998779296875,2.000537157058716,3.4305419921875,2.000537157058716,5.181396484375L2.000537157058716,18.6533203125C2.000537157058716,20.404296875,3.430712938308716,21.8349609375,5.182177543640137,21.8349609375L18.661426544189453,21.8349609375C20.411914825439453,21.8349609375,21.843067169189453,20.404296875,21.843067169189453,18.6533203125L21.843067169189453,5.181396484375C21.843067169189453,3.4305419921875,20.411914825439453,1.9998779296875,18.661426544189453,1.9998779296875ZM5.182177543640137,3.4688720703125L18.661426544189453,3.4688720703125C19.624805450439453,3.4688720703125,20.374073028564453,4.2176513671875,20.374073028564453,5.181396484375L20.374073028564453,18.6533203125C20.374073028564453,19.6171875,19.624805450439453,20.365966796875,18.661426544189453,20.365966796875L5.182177543640137,20.365966796875C4.217822074890137,20.365966796875,3.469531297683716,19.6171875,3.469531297683716,18.6533203125L3.469531297683716,5.181396484375C3.469531297683716,4.2176513671875,4.217822074890137,3.4688720703125,5.182177543640137,3.4688720703125Z" style="display: inline; stroke-linecap: round; stroke-linejoin: round; fill: rgb(0, 0, 0); fill-opacity: 1;"/></g></g><g id="shape-563718e9-8906-8058-8006-98644be1c35b" style="opacity: 1;"><g class="fills" id="fills-563718e9-8906-8058-8006-98644be1c35b"><path d="M12.652148246765137,7.999755859375C10.545458793640137,7.999755859375,8.828173637390137,9.7354736328125,8.828173637390137,11.8494873046875C8.828173637390137,12.74267578125,9.135546684265137,13.567138671875,9.648486137390137,14.2227783203125L6.250048637390137,17.1953125C5.945605278015137,17.4620361328125,5.915087699890137,17.923828125,6.181933403015137,18.2283935546875C6.448534965515137,18.5328369140625,6.909960746765137,18.565185546875,7.215380668640137,18.2989501953125L10.767870903015137,15.1934814453125C11.324267387390137,15.513671875,11.967333793640137,15.697265625,12.652148246765137,15.697265625C14.759570121765137,15.697265625,16.480518341064453,13.9638671875,16.480518341064453,11.8494873046875C16.480518341064453,9.7354736328125,14.759570121765137,7.999755859375,12.652148246765137,7.999755859375ZM12.652148246765137,9.4669189453125C13.961474418640137,9.4669189453125,15.011523246765137,10.5220947265625,15.011523246765137,11.8494873046875C15.011523246765137,13.17724609375,13.961474418640137,14.2342529296875,12.652148246765137,14.2342529296875C11.343554496765137,14.2342529296875,10.293505668640137,13.17724609375,10.293505668640137,11.8494873046875C10.293505668640137,10.5220947265625,11.343554496765137,9.4669189453125,12.652148246765137,9.4669189453125Z" style="display: inline; stroke-width: 0.388055; stroke-linecap: round; stroke-linejoin: bevel; fill: rgb(0, 0, 0); fill-opacity: 1;"/></g></g></g></g></g></g></g></g></g></svg>

<svg fill="none" viewBox="0 0 24 24"><g class="frame-container-wrapper"><g class="frame-container-blur"><g class="frame-container-shadows"><g class="fills"><rect width="24" height="24" class="frame-background" rx="0" ry="0"/></g><g class="frame-children"><path fill="#000" d="M5.1822 1.9999c-1.7515 0-3.1817 1.4306-3.1817 3.1815v13.472c0 1.7509 1.4302 3.1816 3.1817 3.1816h13.4792c1.7505 0 3.1817-1.4307 3.1817-3.1817V5.1814c0-1.7509-1.4312-3.1815-3.1817-3.1815Zm0 1.469h13.4792c.9634 0 1.7127.7488 1.7127 1.7125v13.472c0 .9638-.7493 1.7126-1.7127 1.7126H5.1822c-.9644 0-1.7127-.7488-1.7127-1.7127V5.1814c0-.9637.7483-1.7125 1.7127-1.7125Z" class="fills"/><path fill="#000" d="M12.6521 7.9998c-2.1066 0-3.824 1.7357-3.824 3.8497 0 .8932.3074 1.7176.8204 2.3733L6.25 17.1953a.7314.7314 0 0 0-.068 1.033c.2665.3045.728.3369 1.0334.0707l3.5525-3.1055a3.7659 3.7659 0 0 0 1.8842.5038c2.1075 0 3.8284-1.7334 3.8284-3.8478 0-2.114-1.721-3.8497-3.8284-3.8497Zm0 1.4671c1.3094 0 2.3594 1.0552 2.3594 2.3826 0 1.3277-1.05 2.3848-2.3594 2.3848-1.3085 0-2.3586-1.057-2.3586-2.3848 0-1.3274 1.05-2.3826 2.3586-2.3826Z" class="fills"/></g></g></g></g></svg>
